X:5920
T:Gan Ainm
R:polka
S:Unknown Accordion
H:
N:
D:Live Broadcast (Clare FM?)
Z:Adrian Scahill
M:2/4
L:1/16
K:A
A3B c2e2|a2e2 f2e2|A3B c2e2|f2c2 e4|\
A3B c2e2|a2e2 f2e2|f2af e2c2|B2A2 A4:||
c3e c2B2|c2e2 f2e2|c3e c2B2|cBA2 B4|\
c3e c2B2|c2e2 f2e2|f2af e2c2|B2A2 A4:||
% These tunes have been compiled and transcribed by Adrian Scahill. 
% They are free for personal use only, and may not be published 
% or reproduced for profit. 
% 
% This file may not be included on a web page for download without
% permission. 
%
% I have not generally included ornamentation or variations - and each
% tune is notated as closely as possible to the player's performance. 
% Following from this I have not tried to 'correct' what may be variations,
% wayward versions, instrument-specific quirks etc. 
% 
% I have listed the sources that I know or remember, and have included
% a discography where relevant. 
%
% Last Updated: 4 March 1999.
%
% Questions, Info: Email - adrian@continuo.freeserve.co.uk
% 
%  
% Output from ABC2Win  Version 2.1 h on 3/2/99


